icons_vscode/sequelize.svg

<svg viewBox="0 0 442.96 512" xmlns="http://www.w3.org/2000/svg"><path d="m157.1 392.93 56.12 30.67v-73.19l-56.12-31.58z" fill="#0277bd"/><path d="m141.56 128.27-55.67 32.94 63.01 36.27 55.29-32.25z" fill="#42a5f5"/><path d="m157.1 294.7 56.12 30.67v-65.14l-56.12-32.3zm-82.14-46.89 62.63 34.23v-65.35l-62.63-36.05zm0 98.23 62.63 34.23v-71.88l-62.63-36.45z" fill="#0277bd"/><path d="m223.71 175.15-56.02 33.15 57.01 32.82 55.55-32.59z" fill="#42a5f5"/><path d="m304.69 284.76 63.31-37.46v-64.4l-63.31 37.14z" fill="#0277bd"/><g fill="#42a5f5"><path d="m295.62 199.51 61.47-36.06-56.72-33.47-61.61 36.45z"/><path d="m221.73 0-221.73 128v256l222.24 128 220.76-127.5v-257zm173.16 356.85-172.59 102.15-173.22-100.53v-201.84l172.57-101.54 173.25 98.84z"/><path d="m156.62 119.54 62.64 36.45 61.6-35.94-62.63-36.96z"/></g><path d="m304.69 383.08 63.31-37.55v-73.36l-63.31 38.81zm-69.47-57.4 56.12-33.2v-64.61l-56.12 32.92zm0 98.23 56.12-33.2v-71.36l-56.12 31.27z" fill="#0277bd"/></svg>

<svg xmlns="http://www.w3.org/2000/svg" viewBox="0 0 442.96 512"><path fill="#0277bd" d="m157.1 392.93 56.12 30.67v-73.19l-56.12-31.58z"/><path fill="#42a5f5" d="m141.56 128.27-55.67 32.94 63.01 36.27 55.29-32.25z"/><path fill="#0277bd" d="m157.1 294.7 56.12 30.67v-65.14l-56.12-32.3zm-82.14-46.89 62.63 34.23v-65.35l-62.63-36.05zm0 98.23 62.63 34.23v-71.88l-62.63-36.45z"/><path fill="#42a5f5" d="m223.71 175.15-56.02 33.15 57.01 32.82 55.55-32.59z"/><path fill="#0277bd" d="M304.69 284.76 368 247.3v-64.4l-63.31 37.14z"/><g fill="#42a5f5"><path d="m295.62 199.51 61.47-36.06-56.72-33.47-61.61 36.45z"/><path d="M221.73 0 0 128v256l222.24 128L443 384.5v-257zm173.16 356.85L222.3 459 49.08 358.47V156.63L221.65 55.09l173.25 98.84z"/><path d="m156.62 119.54 62.64 36.45 61.6-35.94-62.63-36.96z"/></g><path fill="#0277bd" d="M304.69 383.08 368 345.53v-73.36l-63.31 38.81zm-69.47-57.4 56.12-33.2v-64.61l-56.12 32.92zm0 98.23 56.12-33.2v-71.36l-56.12 31.27z"/></svg>
